packages/dnb-eufemia/assets/icons/pin_medium.svg

<svg width="24" height="24" viewBox="0 0 24 24" fill="none" xmlns="http://www.w3.org/2000/svg">
<path d="M1 22.9981L8.83121 15.1688M8.83121 15.1688L4.81411 11.1517C4.14434 10.484 4.3043 9.31835 5.10758 8.84704C6.74478 7.89541 8.68585 7.6116 10.527 8.05468L14.5915 1.66685C15.0874 0.887939 16.2233 0.773813 16.8669 1.4174L22.5827 7.13319C23.2354 7.78638 23.1002 8.92007 22.3322 9.40855L15.9454 13.4731C16.3884 15.3142 16.1046 17.2553 15.153 18.8925C14.6817 19.6958 13.5161 19.8557 12.8483 19.1859L8.83121 15.1688Z" stroke="black" stroke-width="1.5" stroke-linecap="round" stroke-linejoin="round"/>
</svg>

<svg width="24" height="24" viewBox="0 0 24 24" fill="none" xmlns="http://www.w3.org/2000/svg"><path d="m1 22.998 7.831-7.83m0 0-4.017-4.016c-.67-.668-.51-1.834.294-2.305a7.358 7.358 0 0 1 5.419-.792l4.065-6.388c.495-.78 1.631-.893 2.275-.25l5.716 5.716c.652.653.517 1.787-.25 2.276l-6.388 4.064a7.359 7.359 0 0 1-.792 5.42c-.471.803-1.637.963-2.305.293l-4.017-4.017Z" stroke="#000" stroke-width="1.5" stroke-linecap="round" stroke-linejoin="round"/></svg>
